Obsidian-SemiLight/actions/22s/view-unsplit-effect.svg

<svg viewBox="0 0 22 22" xmlns="http://www.w3.org/2000/svg"><path d="m3 3v16h16v-16zm1 4h14v11h-14zm5.4941406.9960938-1.6855468 3.3730472h-2.8085938l2.2460938 2.246093-.5625 3.373047 2.8085937-1.685547 2.8105465 1.685547-.5625-3.373047 2.25-2.246093h-2.810546zm2.5390624.0234374v1h4.970703v-1zm2.966797 1.9804688v1h2v-1zm.003906 2.019531v1h2v-1zm-1.998047 1.960938v1h3.998047v-1zm-.015625 2v1h4.013672v-1z" fill="#4d4d4d"/></svg>

<svg xmlns="http://www.w3.org/2000/svg" viewBox="0 0 22 22">
  <defs id="defs3051">
    <style type="text/css" id="current-color-scheme">
      .ColorScheme-Text {
        color:#4d4d4d;
      }
      </style>
  </defs>
 <path 
    style="fill:currentColor;fill-opacity:1;stroke:none" 
    d="M 3 3 L 3 19 L 19 19 L 19 3 L 3 3 z M 4 7 L 18 7 L 18 18 L 4 18 L 4 7 z M 9.4941406 7.9960938 L 7.8085938 11.369141 L 5 11.369141 L 7.2460938 13.615234 L 6.6835938 16.988281 L 9.4921875 15.302734 L 12.302734 16.988281 L 11.740234 13.615234 L 13.990234 11.369141 L 11.179688 11.369141 L 9.4941406 7.9960938 z M 12.033203 8.0195312 L 12.033203 9.0195312 L 17.003906 9.0195312 L 17.003906 8.0195312 L 12.033203 8.0195312 z M 15 10 L 15 11 L 17 11 L 17 10 L 15 10 z M 15.003906 12.019531 L 15.003906 13.019531 L 17.003906 13.019531 L 17.003906 12.019531 L 15.003906 12.019531 z M 13.005859 13.980469 L 13.005859 14.980469 L 17.003906 14.980469 L 17.003906 13.980469 L 13.005859 13.980469 z M 12.990234 15.980469 L 12.990234 16.980469 L 17.003906 16.980469 L 17.003906 15.980469 L 12.990234 15.980469 z "
    class="ColorScheme-Text"
    />  
</svg>
